symbols/web/analytics/materialsymbolsrounded/analytics_wght100grad200_20px.svg

<svg xmlns="http://www.w3.org/2000/svg" height="20" width="20"><path d="M4.792 17.083q-.792 0-1.334-.541-.541-.542-.541-1.334V4.792q0-.792.541-1.334.542-.541 1.334-.541h10.416q.792 0 1.334.541.541.542.541 1.334v10.416q0 .792-.541 1.334-.542.541-1.334.541Zm0-1.208h10.416q.292 0 .48-.187.187-.188.187-.48V4.792q0-.292-.187-.48-.188-.187-.48-.187H4.792q-.292 0-.48.187-.187.188-.187.48v10.416q0 .292.187.48.188.187.48.187Zm1.833-1.917q.229 0 .417-.187.187-.188.187-.417v-2.75q0-.229-.187-.416Q6.854 10 6.625 10q-.229 0-.417.188-.187.187-.187.416v2.75q0 .229.187.417.188.187.417.187Zm6.75 0q.229 0 .417-.187.187-.188.187-.417V6.417q0-.229-.187-.417-.188-.188-.417-.188-.229 0-.417.188-.187.188-.187.417v6.937q0 .229.187.417.188.187.417.187Zm-3.354 0q.229 0 .417-.187.187-.188.187-.417v-1.062q0-.23-.187-.417-.188-.187-.417-.187-.229 0-.417.187-.187.187-.187.417v1.062q0 .229.187.417.188.187.417.187Zm0-3.958q.229 0 .417-.188.187-.187.187-.437V8.271q0-.229-.187-.396-.188-.167-.417-.167-.229 0-.417.188-.187.187-.187.437v1.105q0 .229.187.395.188.167.417.167Zm-5.896 5.875V4.125v11.75Z"/></svg>

<svg xmlns="http://www.w3.org/2000/svg" height="20" width="20"><path d="M4.792 17.083Q4 17.083 3.458 16.542Q2.917 16 2.917 15.208V4.792Q2.917 4 3.458 3.458Q4 2.917 4.792 2.917H15.208Q16 2.917 16.542 3.458Q17.083 4 17.083 4.792V15.208Q17.083 16 16.542 16.542Q16 17.083 15.208 17.083ZM4.792 15.875H15.208Q15.5 15.875 15.688 15.688Q15.875 15.5 15.875 15.208V4.792Q15.875 4.5 15.688 4.312Q15.5 4.125 15.208 4.125H4.792Q4.5 4.125 4.312 4.312Q4.125 4.5 4.125 4.792V15.208Q4.125 15.5 4.312 15.688Q4.5 15.875 4.792 15.875ZM6.625 13.958Q6.854 13.958 7.042 13.771Q7.229 13.583 7.229 13.354V10.604Q7.229 10.375 7.042 10.188Q6.854 10 6.625 10Q6.396 10 6.208 10.188Q6.021 10.375 6.021 10.604V13.354Q6.021 13.583 6.208 13.771Q6.396 13.958 6.625 13.958ZM13.375 13.958Q13.604 13.958 13.792 13.771Q13.979 13.583 13.979 13.354V6.417Q13.979 6.188 13.792 6Q13.604 5.812 13.375 5.812Q13.146 5.812 12.958 6Q12.771 6.188 12.771 6.417V13.354Q12.771 13.583 12.958 13.771Q13.146 13.958 13.375 13.958ZM10.021 13.958Q10.25 13.958 10.438 13.771Q10.625 13.583 10.625 13.354V12.292Q10.625 12.062 10.438 11.875Q10.25 11.688 10.021 11.688Q9.792 11.688 9.604 11.875Q9.417 12.062 9.417 12.292V13.354Q9.417 13.583 9.604 13.771Q9.792 13.958 10.021 13.958ZM10.021 10Q10.25 10 10.438 9.812Q10.625 9.625 10.625 9.375V8.271Q10.625 8.042 10.438 7.875Q10.25 7.708 10.021 7.708Q9.792 7.708 9.604 7.896Q9.417 8.083 9.417 8.333V9.438Q9.417 9.667 9.604 9.833Q9.792 10 10.021 10ZM4.125 15.875Q4.125 15.875 4.125 15.688Q4.125 15.5 4.125 15.208V4.792Q4.125 4.5 4.125 4.312Q4.125 4.125 4.125 4.125Q4.125 4.125 4.125 4.312Q4.125 4.5 4.125 4.792V15.208Q4.125 15.5 4.125 15.688Q4.125 15.875 4.125 15.875Z"/></svg>
